dist/assets/internet.svg

<svg width="40" height="40" viewBox="0 0 40 40" fill="none" xmlns="http://www.w3.org/2000/svg">
<g id="Frame 1000005832">
<rect width="40" height="40" rx="8" fill="#FCE8EF"/>
<g id="captive_portal">
<mask id="mask0_0_508" style="mask-type:alpha" maskUnits="userSpaceOnUse" x="10" y="10" width="20" height="20">
<rect id="Bounding box" x="10" y="10" width="20" height="20" fill="#D9D9D9"/>
</mask>
<g mask="url(#mask0_0_508)">
<path id="captive_portal_2" d="M17.8333 26.2917C17.5833 25.8334 17.3645 25.3577 17.177 24.8646C16.9895 24.3715 16.8333 23.8611 16.7083 23.3334H14.25C14.6527 24.0278 15.1562 24.632 15.7604 25.1459C16.3645 25.6597 17.0555 26.0417 17.8333 26.2917ZM13.5416 21.6667H16.375C16.3333 21.3889 16.302 21.1146 16.2812 20.8438C16.2604 20.5729 16.25 20.2917 16.25 20C16.25 19.7084 16.2604 19.4271 16.2812 19.1563C16.302 18.8854 16.3333 18.6111 16.375 18.3334H13.5416C13.4722 18.6111 13.4201 18.8854 13.3854 19.1563C13.3507 19.4271 13.3333 19.7084 13.3333 20C13.3333 20.2917 13.3507 20.5729 13.3854 20.8438C13.4201 21.1146 13.4722 21.3889 13.5416 21.6667ZM14.25 16.6667H16.7083C16.8333 16.1389 16.9895 15.6285 17.177 15.1354C17.3645 14.6424 17.5833 14.1667 17.8333 13.7084C17.0555 13.9584 16.3645 14.3403 15.7604 14.8542C15.1562 15.3681 14.6527 15.9722 14.25 16.6667ZM18.4166 16.6667H21.5833C21.4166 16.0556 21.2013 15.4792 20.9375 14.9375C20.6736 14.3959 20.3611 13.875 20 13.375C19.6388 13.875 19.3263 14.3959 19.0625 14.9375C18.7986 15.4792 18.5833 16.0556 18.4166 16.6667ZM23.2916 16.6667H25.75C25.3472 15.9722 24.8437 15.3681 24.2395 14.8542C23.6354 14.3403 22.9444 13.9584 22.1666 13.7084C22.4166 14.1667 22.6354 14.6424 22.8229 15.1354C23.0104 15.6285 23.1666 16.1389 23.2916 16.6667ZM20 28.3334C18.8611 28.3334 17.7847 28.1146 16.7708 27.6771C15.7569 27.2396 14.8715 26.6424 14.1145 25.8854C13.3576 25.1285 12.7604 24.2431 12.3229 23.2292C11.8854 22.2153 11.6666 21.1389 11.6666 20C11.6666 18.8472 11.8854 17.7674 12.3229 16.7604C12.7604 15.7535 13.3576 14.8715 14.1145 14.1146C14.8715 13.3577 15.7569 12.7604 16.7708 12.3229C17.7847 11.8854 18.8611 11.6667 20 11.6667C21.1527 11.6667 22.2326 11.8854 23.2395 12.3229C24.2465 12.7604 25.1284 13.3577 25.8854 14.1146C26.6423 14.8715 27.2395 15.7535 27.677 16.7604C28.1145 17.7674 28.3333 18.8472 28.3333 20C28.3333 20.1389 28.3298 20.2778 28.3229 20.4167C28.3159 20.5556 28.3055 20.6945 28.2916 20.8334H26.6041C26.6319 20.6945 26.6493 20.559 26.6562 20.4271C26.6632 20.2952 26.6666 20.1528 26.6666 20C26.6666 19.7084 26.6493 19.4271 26.6145 19.1563C26.5798 18.8854 26.5277 18.6111 26.4583 18.3334H23.625C23.6666 18.6111 23.6979 18.8854 23.7187 19.1563C23.7395 19.4271 23.75 19.7084 23.75 20V20.4271C23.75 20.559 23.743 20.6945 23.7291 20.8334H22.0625C22.0763 20.6945 22.0833 20.559 22.0833 20.4271V20C22.0833 19.7084 22.0729 19.4271 22.052 19.1563C22.0312 18.8854 22 18.6111 21.9583 18.3334H18.0416C18 18.6111 17.9687 18.8854 17.9479 19.1563C17.927 19.4271 17.9166 19.7084 17.9166 20C17.9166 20.2917 17.927 20.5729 17.9479 20.8438C17.9687 21.1146 18 21.3889 18.0416 21.6667H20.8333V23.3334H18.4166C18.5833 23.9445 18.7986 24.5209 19.0625 25.0625C19.3263 25.6042 19.6388 26.125 20 26.625C20.1527 26.4028 20.2986 26.1771 20.4375 25.9479C20.5763 25.7188 20.7083 25.4861 20.8333 25.25V28.2917C20.6944 28.3056 20.559 28.316 20.427 28.3229C20.2951 28.3299 20.1527 28.3334 20 28.3334ZM26.625 27.8125L24.1666 25.3542V27.2084H22.5V22.5H27.2083V24.1667H25.3333L27.7916 26.625L26.625 27.8125Z" fill="#E9407A"/>
</g>
</g>
</g>
</svg>

<svg xmlns="http://www.w3.org/2000/svg" width="40" height="40" fill="none"><rect width="40" height="40" fill="#FCE8EF" rx="8"/><mask id="a" width="20" height="20" x="10" y="10" maskUnits="userSpaceOnUse" style="mask-type:alpha"><path fill="#D9D9D9" d="M10 10h20v20H10z"/></mask><g mask="url(#a)"><path fill="#E9407A" d="M17.833 26.292c-.25-.459-.468-.934-.656-1.427a12.242 12.242 0 0 1-.469-1.532H14.25a6.914 6.914 0 0 0 1.51 1.813 5.997 5.997 0 0 0 2.073 1.146Zm-4.291-4.625h2.833a11.027 11.027 0 0 1-.094-2.51c.021-.272.052-.546.094-.824h-2.833A6.637 6.637 0 0 0 13.334 20a6.638 6.638 0 0 0 .208 1.667Zm.708-5h2.458c.125-.528.282-1.039.469-1.532.188-.493.406-.968.656-1.427a5.995 5.995 0 0 0-2.073 1.146 6.912 6.912 0 0 0-1.51 1.813Zm4.167 0h3.166a9.875 9.875 0 0 0-.645-1.73A10.585 10.585 0 0 0 20 13.376c-.361.5-.674 1.02-.938 1.563a9.867 9.867 0 0 0-.645 1.729Zm4.875 0h2.458a6.915 6.915 0 0 0-1.51-1.813 5.995 5.995 0 0 0-2.073-1.146c.25.459.468.934.656 1.427.187.494.344 1.004.469 1.532ZM20 28.333a8.063 8.063 0 0 1-3.23-.656 8.452 8.452 0 0 1-2.655-1.792 8.452 8.452 0 0 1-1.792-2.656A8.063 8.063 0 0 1 11.667 20a8.04 8.04 0 0 1 .656-3.24 8.486 8.486 0 0 1 1.791-2.645 8.454 8.454 0 0 1 2.657-1.792A8.063 8.063 0 0 1 20 11.667a8.04 8.04 0 0 1 3.24.656 8.487 8.487 0 0 1 2.645 1.792 8.486 8.486 0 0 1 1.792 2.645 8.04 8.04 0 0 1 .656 3.24 8.397 8.397 0 0 1-.041.833h-1.688c.028-.138.045-.274.052-.406.007-.132.01-.274.01-.427a6.618 6.618 0 0 0-.208-1.667h-2.833A11.023 11.023 0 0 1 23.75 20v.427c0 .132-.007.268-.02.406h-1.668c.014-.138.021-.274.021-.406V20a10.972 10.972 0 0 0-.125-1.667h-3.916a10.972 10.972 0 0 0-.094 2.51c.02.272.052.546.094.824h2.791v1.666h-2.416c.166.612.382 1.188.645 1.73.264.541.577 1.062.938 1.562a14.079 14.079 0 0 0 .833-1.375v3.042a8.58 8.58 0 0 1-.833.041Zm6.625-.52-2.458-2.459v1.854H22.5V22.5h4.708v1.667h-1.875l2.459 2.458-1.167 1.188Z"/></g></svg>
